X: 2145
T: FOR A' THAT AND A' THAT
C:
Q: "Strathspey."
R: Strathspey.
%R: strathspey
B: James Kerr "Merry Melodies" v.2 p.17 #145
Z: 2016 John Chambers <jc:trillian.mit.edu>
M: C
L: 1/8
K: D
uA |\
vd>veud>uA (B<d)(e>f) | vd>veuf>ud B2(B>A) |\
d>ed>A (B<d)(e>g) | f>ed>B A2A ::\
ug |\
vf>vgua>uf vg<ee>ug |
f>ga>A B2(B>g) |\
[1 f>ga>f g>fe>g | f>ed>B A2A :|\
[2 f>ga>f b/a/g/f/ e<g | f>ed>B A2A |]
